vue/components/ui/templates/home-part/logo.svg

<?xml version="1.0" encoding="UTF-8"?>
<svg width="373px" height="63px" viewBox="0 0 373 63" version="1.1" xmlns="http://www.w3.org/2000/svg" xmlns:xlink="http://www.w3.org/1999/xlink">
    <!-- Generator: Sketch 62 (91390) - https://sketch.com -->
    <title>ripelogos/white/logo/crop/color</title>
    <desc>Created with Sketch.</desc>
    <defs>
        <linearGradient x1="-82.4839703%" y1="139.651362%" x2="146.120598%" y2="-32.1823129%" id="linearGradient-1">
            <stop stop-color="#6051F2" offset="0%"></stop>
            <stop stop-color="#6459F3" offset="24%"></stop>
            <stop stop-color="#6E6DF5" offset="60%"></stop>
            <stop stop-color="#7D8CF9" offset="100%"></stop>
        </linearGradient>
        <linearGradient x1="17.5%" y1="79.5764326%" x2="70.5%" y2="32.6297142%" id="linearGradient-2">
            <stop stop-color="#3A3AA0" offset="0%"></stop>
            <stop stop-color="#4447AE" offset="22%"></stop>
            <stop stop-color="#5F68D2" offset="62%"></stop>
            <stop stop-color="#7D8CF9" offset="100%"></stop>
        </linearGradient>
        <linearGradient x1="18.8733762%" y1="103.636244%" x2="73.2060677%" y2="-2.34431852%" id="linearGradient-3">
            <stop stop-color="#7A89F9" offset="0%"></stop>
            <stop stop-color="#8190F9" offset="26%"></stop>
            <stop stop-color="#93A3FB" offset="63%"></stop>
            <stop stop-color="#A9BBFC" offset="97%"></stop>
        </linearGradient>
    </defs>
    <g id="ripelogos/white/logo/crop/color" stroke="none" stroke-width="1" fill="none" fill-rule="evenodd">
        <g id="white-logo-color" transform="translate(0.000000, -0.000000)" fill-rule="nonzero">
            <path d="M25.1253901,0 L16.2431206,0 C15.8499812,0.00380842262 15.47172,0.146179549 15.1790071,0.40051432 L1.50382979,12.0836023 C0.743050651,12.7468645 0.654014242,13.8721914 1.30156028,14.6400766 L29.9007092,48.5218838 C30.1982199,48.8893398 30.6500349,49.1082411 31.1319149,49.1183945 L31.1846809,49.1183945 C31.6665608,49.1082411 32.1183758,48.8893398 32.4158865,48.5218838 L61.0678014,14.6230335 C61.7130033,13.8559491 61.6281113,12.7342329 60.8743262,12.0665591 L47.1903546,0.409035902 C46.9025175,0.151492182 46.5267704,0.00585468482 46.1350355,0 L25.1253901,0 Z" id="Path" fill="url(#linearGradient-1)"></path>
            <path d="M31.2550355,49.0757866 C31.0268114,49.0666238 30.8246149,48.9304721 30.7361702,48.7264018" id="Path" fill="url(#linearGradient-2)"></path>
            <path d="M46.1086525,14.7252925 L31.7387234,48.7178802 C31.6480686,48.9323274 31.4326337,49.0724048 31.1934752,49.0724048 C30.9543166,49.0724048 30.7388818,48.9323274 30.648227,48.7178802 L16.2695035,14.6912061 C15.8833678,13.7932757 15.9925926,12.7669745 16.5597163,11.9643001 L25.1341844,0 L36.8658156,0 L45.7832624,11.9302138 C46.379256,12.7461723 46.5020756,13.8011844 46.1086525,14.7252925 Z" id="Path" fill="url(#linearGradient-3)"></path>
            <path d="M101.35461,47.1839956 L92.4019858,31.1463796 L84.6805674,31.1463796 L84.6805674,47.1839956 L75.1387234,47.1839956 L75.1387234,2.55647438 L94.8292199,2.55647438 C99.2967376,2.55647438 102.893617,3.81766841 105.593475,6.34005647 C108.293333,8.86244453 109.656454,12.373336 109.656454,16.8642094 C109.740977,19.5975603 109.073204,22.3034605 107.721702,24.7040641 C106.460925,26.8409689 104.5593,28.5558208 102.26922,29.6210165 L112.057305,47.1499092 L101.35461,47.1839956 Z M84.6190071,23.0082695 L93.6595745,23.0082695 C95.346709,23.0805744 96.9945324,22.5013426 98.2414184,21.3976906 C99.4570231,20.2162715 100.096563,18.5895452 100.000284,16.9238604 C100.110765,15.2206823 99.4717066,13.5518329 98.2414184,12.3307281 C96.9911318,11.2334043 95.3448928,10.6577913 93.6595745,10.7286708 L84.6190071,10.7286708 L84.6190071,23.0082695 Z" id="Shape" fill="#22283F"></path>
            <path d="M120.48227,1.03963292 C121.924501,1.00937306 123.315444,1.5583646 124.32539,2.55647438 C125.358676,3.53364463 125.9285,4.88163579 125.899574,6.28040541 C125.919846,7.66011853 125.350045,8.98646315 124.32539,9.94468536 C123.318448,10.949056 121.927119,11.5043697 120.48227,11.47857 C119.04604,11.5087697 117.662196,10.9557149 116.665532,9.95320694 C115.660789,8.98464899 115.105306,7.6620782 115.126525,6.28892699 C115.108365,4.88457039 115.687176,3.53480937 116.727092,2.55647438 C117.712352,1.57492378 119.069236,1.0268329 120.48227,1.03963292 Z M124.97617,47.1839956 L115.988369,47.1839956 L115.988369,16.3614361 L124.97617,16.3614361 L124.97617,47.1839956 Z" id="Shape" fill="#22283F"></path>
            <path d="M149.336454,15.7649254 C153.522048,15.6181792 157.569797,17.2268143 160.443688,20.1791045 C163.29305,23.1162095 164.71773,26.9906884 164.71773,31.8025413 C164.71773,36.6143942 163.29305,40.5002353 160.443688,43.4600645 C157.572463,46.4161142 153.522874,48.0254812 149.336454,47.8742436 C145.437636,47.8742436 142.465154,46.7806407 140.419007,44.5934349 L140.419007,62.3864966 L131.431206,62.3864966 L131.431206,16.3699576 L139.926525,16.3699576 L139.926525,19.599637 C141.896454,17.0488436 145.033097,15.7706064 149.336454,15.7649254 Z M147.920567,23.221309 C145.874603,23.1366245 143.889373,23.9060889 142.468085,25.3346612 C141.032619,26.9176909 140.293929,28.9824426 140.410213,31.0867285 L140.410213,32.5183542 C140.291081,34.6230284 141.030134,36.688795 142.468085,38.2704215 C145.561696,41.1559043 150.475692,41.0913017 153.487376,38.1255547 C154.894468,36.6172348 155.606809,34.5038826 155.606809,31.8025413 C155.606809,29.1012001 154.894468,26.9963695 153.487376,25.4880496 C152.068238,23.9730159 150.030562,23.1432975 147.920567,23.221309 Z" id="Shape" fill="#22283F"></path>
            <path d="M200.281986,34.5464905 L178.436879,34.5464905 C178.413949,36.251764 179.076214,37.8988602 180.283688,39.1396228 C181.569669,40.3083664 183.289001,40.9231298 185.050213,40.8439391 C188.251348,40.8439391 190.194894,39.7105688 190.89844,37.4353066 L199.939007,37.8528641 C199.358817,40.8043534 197.573504,43.4038777 194.987801,45.0621218 C192.150338,46.9644463 188.763467,47.9460122 185.314043,47.8657221 C180.38922,47.8657221 176.420047,46.4142127 173.406525,43.511194 C170.393002,40.6081753 168.886241,36.7138127 168.886241,31.8281061 C168.886241,26.9026321 170.384208,22.9969074 173.380142,20.1109318 C176.376076,17.2249563 180.271962,15.7848091 185.067801,15.7904734 C189.69948,15.7904734 193.390165,17.1539431 196.139858,19.8808491 C198.889551,22.6077551 200.264397,26.3515699 200.264397,31.1122933 L200.281986,34.5464905 Z M185.02383,22.5651472 C183.312599,22.4874801 181.640468,23.0766701 180.380426,24.2012908 C179.153846,25.4236522 178.458168,27.05553 178.436879,28.7603368 L191.241418,28.7603368 C191.259776,27.0923357 190.657199,25.4737852 189.544113,24.2012908 C188.349338,23.052829 186.703046,22.4569439 185.02383,22.5651472 L185.02383,22.5651472 Z" id="Shape" fill="#22283F"></path>
            <polygon id="Path" fill="#22283F" points="253.99773 47.1839956 250.919716 47.1839956 237.262128 9.09252723 223.657305 47.1839956 220.588085 47.1839956 204.468085 2.55647438 208.425532 2.55647438 222.153475 41.0740218 235.784681 2.55647438 238.801135 2.55647438 252.458723 41.0740218 266.177872 2.55647438 270.05617 2.55647438"></polygon>
            <path d="M279.659574,0.852158128 L279.659574,21.9686365 C281.137021,18.926432 284.883404,16.4807382 289.869787,16.4807382 C293.113139,16.3721849 296.249607,17.6126724 298.488227,19.8893707 C300.757163,22.0964603 301.865248,25.0023195 301.865248,28.6495563 L301.865248,47.1839956 L298.426667,47.1839956 L298.426667,29.0585922 C298.426667,23.4002622 294.73305,19.5825938 289.315745,19.5825938 C286.695788,19.5273892 284.173279,20.5453223 282.368227,22.386194 C280.602316,24.1832004 279.630404,26.5773738 279.659574,29.0585922 L279.659574,47.1839956 L276.212199,47.1839956 L276.212199,0.852158128 L279.659574,0.852158128 Z" id="Path" fill="#22283F"></path>
            <path d="M315.144681,7.30299516 C314.147474,8.18697503 312.60862,8.15290896 311.654115,7.22572348 C310.699611,6.29853801 310.668249,4.80732959 311.582979,3.84323316 C313.676028,1.33788826 317.730213,5.27485881 315.144681,7.30299516 Z M315.091915,47.1839956 L311.644539,47.1839956 L311.644539,17.0431626 L315.091915,17.0431626 L315.091915,47.1839956 Z" id="Shape" fill="#22283F"></path>
            <path d="M338.959716,44.141791 L338.959716,47.1839956 C337.657871,47.3941718 336.339594,47.4939681 335.019858,47.4822509 C329.602553,47.4822509 326.348652,44.5593485 326.348652,38.3641589 L326.410213,19.9405002 L320.500426,19.9405002 L320.500426,17.0431626 L326.410213,17.0431626 L326.471773,6.3741428 L329.989504,6.3741428 L329.910355,17.0431626 L338.836596,17.0431626 L338.836596,19.9405002 L329.910355,19.9405002 L329.787234,37.7676482 C329.787234,42.2414784 331.757163,44.4400464 335.697021,44.4400464 C336.789859,44.4053939 337.879472,44.3057883 338.959716,44.141791 Z" id="Path" fill="#22283F"></path>
            <path d="M371.569078,33.3534691 L346.153475,33.3534691 C346.217967,36.8757227 347.326052,39.679323 349.47773,41.7642699 C351.63008,43.7933343 354.540662,44.8882435 357.542128,44.7979528 C362.950638,44.7979528 366.644255,42.41191 367.813901,38.1852057 L371.261277,38.42381 C369.78383,44.08214 364.735887,47.7208552 357.665248,47.7208552 C353.590054,47.8686469 349.637604,46.354009 346.769078,43.5452804 C343.949031,40.7502017 342.536076,36.9353738 342.530213,32.1007967 C342.530213,27.2775817 343.946099,23.4599133 346.707518,20.656313 C349.544692,17.8388342 353.482957,16.3210573 357.542128,16.4807382 C361.939291,16.4807382 365.351489,17.8527128 367.813901,20.5370109 C370.276312,23.221309 371.569078,26.7407221 371.569078,31.2060307 L371.569078,33.3534691 Z M346.153475,30.5498689 L368.183262,30.5498689 C368.183262,23.8774708 364.366525,19.4718 357.480567,19.4718 C351.016738,19.4632916 346.399716,23.5792154 346.153475,30.5498689 Z" id="Shape" fill="#22283F"></path>
        </g>
    </g>
</svg>

<svg width="373" height="63" viewBox="0 0 373 63" xmlns="http://www.w3.org/2000/svg"><defs><linearGradient x1="-82.484%" y1="139.651%" x2="146.121%" y2="-32.182%" id="a"><stop stop-color="#6051F2" offset="0%"/><stop stop-color="#6459F3" offset="24%"/><stop stop-color="#6E6DF5" offset="60%"/><stop stop-color="#7D8CF9" offset="100%"/></linearGradient><linearGradient x1="17.5%" y1="79.576%" x2="70.5%" y2="32.63%" id="b"><stop stop-color="#3A3AA0" offset="0%"/><stop stop-color="#4447AE" offset="22%"/><stop stop-color="#5F68D2" offset="62%"/><stop stop-color="#7D8CF9" offset="100%"/></linearGradient><linearGradient x1="18.873%" y1="103.636%" x2="73.206%" y2="-2.344%" id="c"><stop stop-color="#7A89F9" offset="0%"/><stop stop-color="#8190F9" offset="26%"/><stop stop-color="#93A3FB" offset="63%"/><stop stop-color="#A9BBFC" offset="97%"/></linearGradient></defs><g fill-rule="nonzero" fill="none"><path d="M25.125 0h-8.882a1.647 1.647 0 00-1.064.4L1.504 12.085a1.817 1.817 0 00-.202 2.556L29.9 48.522c.297.367.749.586 1.23.596h.054c.482-.01.933-.229 1.23-.596l28.653-33.899a1.825 1.825 0 00-.194-2.556L47.19.409A1.62 1.62 0 0046.135 0h-21.01z" fill="url(#a)"/><path d="M31.255 49.076a.589.589 0 01-.519-.35" fill="url(#b)"/><path d="M46.109 14.725l-14.37 33.993a.59.59 0 01-.546.354.59.59 0 01-.545-.354L16.27 14.69a2.796 2.796 0 01.29-2.727L25.134 0h11.732l8.917 11.93c.596.816.72 1.871.326 2.795z" fill="url(#c)"/><path d="M101.355 47.184l-8.953-16.038h-7.721v16.038h-9.542V2.556h19.69c4.468 0 8.065 1.262 10.764 3.784 2.7 2.522 4.063 6.033 4.063 10.524a15.023 15.023 0 01-1.934 7.84 12.377 12.377 0 01-5.453 4.917l9.788 17.529-10.702.034zM84.619 23.008h9.04a6.498 6.498 0 004.582-1.61 5.772 5.772 0 001.76-4.474 5.928 5.928 0 00-1.76-4.593 6.535 6.535 0 00-4.581-1.602h-9.041v12.28zM120.482 1.04a5.311 5.311 0 013.843 1.516A4.983 4.983 0 01125.9 6.28a4.918 4.918 0 01-1.575 3.665 5.31 5.31 0 01-3.843 1.534 5.229 5.229 0 01-3.816-1.526 4.982 4.982 0 01-1.54-3.664 5.035 5.035 0 011.601-3.733 5.255 5.255 0 013.755-1.516zm4.494 46.144h-8.988V16.361h8.988v30.823zM149.336 15.765c4.186-.147 8.234 1.462 11.108 4.414 2.85 2.937 4.274 6.812 4.274 11.624 0 4.811-1.425 8.697-4.274 11.657-2.872 2.956-6.921 4.565-11.108 4.414-3.898 0-6.87-1.093-8.917-3.28v17.792h-8.988V16.37h8.496v3.23c1.97-2.551 5.106-3.83 9.41-3.835zm-1.415 7.456a7.271 7.271 0 00-5.453 2.114 7.908 7.908 0 00-2.058 5.752v1.431a7.883 7.883 0 002.058 5.752c3.094 2.886 8.008 2.821 11.02-.144 1.406-1.509 2.119-3.622 2.119-6.323 0-2.702-.713-4.807-2.12-6.315-1.419-1.515-3.456-2.345-5.566-2.267zM200.282 34.546h-21.845a6.46 6.46 0 001.847 4.594 6.648 6.648 0 004.766 1.704c3.201 0 5.145-1.133 5.848-3.409l9.041.418c-.58 2.951-2.365 5.55-4.951 7.21a16.688 16.688 0 01-9.674 2.803c-4.925 0-8.894-1.452-11.907-4.355-3.014-2.903-4.52-6.797-4.52-11.683 0-4.925 1.497-8.831 4.493-11.717 2.996-2.886 6.892-4.326 11.688-4.32 4.631 0 8.322 1.363 11.072 4.09s4.124 6.47 4.124 11.231l.018 3.434zm-15.258-11.98a6.534 6.534 0 00-4.644 1.635 6.551 6.551 0 00-1.943 4.56h12.804a6.808 6.808 0 00-1.697-4.56 5.973 5.973 0 00-4.52-1.636zM253.998 47.184h-3.078L237.262 9.093l-13.605 38.091h-3.069l-16.12-44.628h3.958l13.727 38.518 13.632-38.518h3.016l13.658 38.518 13.719-38.518h3.878zM279.66.852V21.97c1.477-3.043 5.223-5.488 10.21-5.488 3.243-.109 6.38 1.132 8.618 3.408 2.27 2.207 3.377 5.113 3.377 8.76v18.535h-3.438V29.059c0-5.659-3.694-9.476-9.111-9.476-2.62-.056-5.143.962-6.948 2.803a9.36 9.36 0 00-2.708 6.673v18.125h-3.448V.852h3.448zM315.145 7.303a2.583 2.583 0 01-3.49-.077 2.391 2.391 0 01-.072-3.383c2.093-2.505 6.147 1.432 3.562 3.46zm-.053 39.881h-3.447v-30.14h3.447v30.14zM338.96 44.142v3.042c-1.302.21-2.62.31-3.94.298-5.417 0-8.671-2.923-8.671-9.118l.061-18.423h-5.91v-2.898h5.91l.062-10.669h3.518l-.08 10.67h8.927v2.897h-8.927l-.123 17.827c0 4.473 1.97 6.672 5.91 6.672a27.557 27.557 0 003.263-.298zM371.57 33.353h-25.417c.065 3.523 1.173 6.326 3.325 8.411 2.152 2.03 5.063 3.124 8.064 3.034 5.409 0 9.102-2.386 10.272-6.613l3.447.239c-1.477 5.658-6.525 9.297-13.596 9.297-4.075.148-8.027-1.367-10.896-4.176-2.82-2.795-4.233-6.61-4.239-11.444 0-4.823 1.416-8.641 4.178-11.445 2.837-2.817 6.775-4.335 10.834-4.175 4.397 0 7.81 1.372 10.272 4.056 2.462 2.684 3.755 6.204 3.755 10.669v2.147zm-25.417-2.803h22.03c0-6.673-3.816-11.078-10.702-11.078-6.464-.009-11.081 4.107-11.328 11.078z" fill="#22283F"/></g></svg>
